icons/baidu-line.svg

<svg viewBox="0 0 24 24" fill="currentColor" xmlns="http://www.w3.org/2000/svg">
    <path d="M7.56331 19.2798C7.73337 19.2876 7.92984 19.2906 8.14727 19.2863C8.77279 19.2739 9.4239 19.2047 10.059 19.0626C11.0716 18.838 12.0771 18.8143 13.0395 18.9318C13.5864 18.9986 14.0247 19.0969 14.3275 19.1891C15.4052 19.4638 16.9386 19.4119 17.3331 18.7782C17.6238 18.3113 17.5856 17.9916 17.3071 17.5803C17.2466 17.4909 17.1809 17.4105 17.1185 17.3445C17.1097 17.3351 17.1016 17.3269 17.0945 17.3197C17.0282 17.267 16.9917 17.2377 16.9302 17.1878C16.7544 17.0449 16.5599 16.8823 16.3513 16.702C15.7559 16.1875 15.1602 15.6296 14.5987 15.0426C13.9929 14.4095 13.461 13.7777 13.0219 13.1489L12.9861 13.0958C12.2441 11.9571 11.428 12.029 10.9837 12.7785C10.7019 13.254 10.3821 13.696 10.029 14.1105C9.61853 14.5924 9.19882 15.0001 8.72348 15.4067C8.60056 15.5119 8.22086 15.8269 8.31171 15.751C8.30802 15.7541 8.29484 15.7661 8.36265 15.6797C8.26441 15.8004 7.41258 16.5574 7.16177 16.8417C6.64726 17.4248 6.44014 17.9224 6.51725 18.3224C6.58965 18.6978 6.73623 18.9089 6.96754 19.0667C7.08515 19.1469 7.22108 19.2086 7.35634 19.2494C7.39091 19.2598 7.42153 19.2677 7.44674 19.2732C7.48007 19.2755 7.51904 19.2777 7.56331 19.2798ZM14.6617 12.0039C16.0373 13.9739 18.3933 15.7967 18.3933 15.7967C18.3933 15.7967 20.4569 17.5447 19.031 19.8352C17.605 22.1257 13.778 21.1127 13.778 21.1127C13.778 21.1127 12.2578 20.6236 10.492 21.0152C8.72706 21.4102 7.20561 21.2604 7.20561 21.2604C7.20561 21.2604 4.99964 21.0152 4.55343 18.701C4.10721 16.3869 6.61326 14.6608 6.81143 14.4173C7.00657 14.1699 8.32336 13.3442 9.26328 11.7587C10.2032 10.1731 12.8471 9.21909 14.6617 12.0039ZM20.2002 10.5846C20.2002 11.0415 20.391 12.9772 18.6478 13.0158C16.9053 13.0544 16.8317 11.8378 16.8317 10.9662C16.8317 10.053 17.0192 8.76113 18.422 8.76113C19.8225 8.76113 20.2002 10.13 20.2002 10.5846ZM14.7711 7.80669C13.591 7.65486 13.3238 6.58499 13.4378 5.51446C13.5333 4.63866 14.5804 3.2953 15.419 3.48769C16.2559 3.6784 17.0188 4.78748 16.8646 5.74238C16.7134 6.69862 15.9533 7.9602 14.7711 7.80669ZM9.75498 7.43996C8.89373 7.43996 8.19433 6.44695 8.19433 5.21916C8.19433 3.99269 8.8934 3 9.75498 3C10.6179 3 11.3153 3.99269 11.3153 5.21916C11.3153 6.44695 10.6179 7.43996 9.75498 7.43996ZM5.96186 12.0061C4.26673 12.3714 3.63542 10.4091 3.82144 9.49078C3.82144 9.49078 4.02239 7.50401 5.39776 7.38059C6.49074 7.28599 7.29562 8.4821 7.37884 9.16641C7.42971 9.61029 7.66125 11.6412 5.96186 12.0061Z"/>
</svg>

<svg xmlns="http://www.w3.org/2000/svg" viewBox="0 0 24 24">
    <g>
        <path fill="none" d="M0 0h24v24H0z"/>
        <path fill-rule="nonzero" d="M7.564 19.28a9.69 9.69 0 0 0 2.496-.217 8.8 8.8 0 0 1 2.98-.131c.547.067.985.165 1.288.257 1.078.275 2.61.223 3.005-.41.291-.468.253-.787-.026-1.199a1.886 1.886 0 0 0-.212-.26 25.006 25.006 0 0 1-.743-.618 25.618 25.618 0 0 1-1.753-1.66 16.151 16.151 0 0 1-1.577-1.893l-.036-.053c-.742-1.139-1.558-1.067-2.002-.317a9.604 9.604 0 0 1-.955 1.331c-.41.482-.83.89-1.305 1.297-.123.105-.503.42-.412.344-.004.003-.017.015.051-.071-.098.12-.95.877-1.2 1.162-.515.583-.723 1.08-.645 1.48.072.376.219.587.45.745a1.432 1.432 0 0 0 .48.206l.116.007zm7.098-7.276c1.376 1.97 3.732 3.793 3.732 3.793s2.063 1.748.637 4.038c-1.426 2.29-5.253 1.278-5.253 1.278s-1.52-.49-3.286-.098c-1.765.395-3.286.245-3.286.245S5 21.015 4.554 18.701c-.446-2.314 2.06-4.04 2.258-4.284.195-.247 1.512-1.073 2.452-2.658.94-1.586 3.583-2.54 5.398.245zm5.539-1.42c0 .458.19 2.393-1.553 2.432-1.742.038-1.816-1.178-1.816-2.05 0-.913.188-2.205 1.59-2.205 1.4 0 1.779 1.369 1.779 1.824zm-5.43-2.777c-1.18-.152-1.447-1.222-1.333-2.293.096-.875 1.143-2.219 1.981-2.026.837.19 1.6 1.3 1.446 2.254-.151.957-.911 2.218-2.094 2.065zM9.755 7.44c-.86 0-1.56-.993-1.56-2.22 0-1.227.699-2.22 1.56-2.22.863 0 1.56.993 1.56 2.22 0 1.227-.697 2.22-1.56 2.22zm-3.793 4.566c-1.695.365-2.326-1.597-2.14-2.515 0 0 .2-1.987 1.576-2.11 1.093-.095 1.898 1.101 1.981 1.785.051.444.283 2.475-1.417 2.84z"/>
    </g>
</svg>
